X: 11183
T: Dungulph Castle
R: jig
M: 6/8
K: Dmajor
A|:B2 e dBA|BAF EFE|FEF A2 A|Bed cBA|
[1 B2 e dBA|BAF EFE|FEF A2 A|BAF DFA:|
[2 B2 e dBA|BAF EFE|FEF AFA|Bce d2 c||
|:d2 f edA|DFA dAF|B2 e ede|Bed cBA|
d2 f edA|DFA dAF|GB/c/d FdA|1 GEC DFA:|2 GEC D3||

